X: 33
T: Un Flambeau, Jeanette Isabelle
P: piffero primo c0005
O: French
%R: air, waltz
F: http://ancients.sudburymuster.org/mus/col/pdf/carolsF.pdf
Z: 2020 John Chambers <jc:trillian.mit.edu>
M: 3/8
L: 1/8
K: G
% - - - - - - - - - -
[|\
d2G | GFG | ABc | B2G |\
d2G | GFG | ABA | G3  |\
d2d | dcB | BAG | G2F |\
EFG |
D2D | c2c | B2A |\
G2z | A2z | BcB | A2d |\
B2A | G2z | A2z | BcB |\
A2d | G3 | Gz2 |]
% - - - - - - - - - -


